svg/fluentui-system-icons/ic_fluent_star_dismiss_16_filled.svg

<svg width="16" height="16" viewBox="0 0 16 16" fill="none" xmlns="http://www.w3.org/2000/svg">
<path d="M7.1939 2.10228C7.52403 1.43336 8.47789 1.43336 8.80802 2.10228L10.2413 5.00647C7.32386 5.14154 5 7.54963 5 10.5005C5 11.5943 5.3193 12.6135 5.86977 13.4701L4.95879 13.949C4.29853 14.2961 3.52684 13.7355 3.65294 13.0002L4.23394 9.61273L1.77277 7.21369C1.23861 6.693 1.53336 5.78583 2.27156 5.67856L5.67281 5.18433L7.1939 2.10228ZM15 10.5005C15 12.9858 12.9853 15.0005 10.5 15.0005C8.01472 15.0005 6 12.9858 6 10.5005C6 8.01521 8.01472 6.00049 10.5 6.00049C12.9853 6.00049 15 8.01521 15 10.5005ZM12.3536 9.35404C12.5488 9.15878 12.5488 8.8422 12.3536 8.64694C12.1583 8.45167 11.8417 8.45167 11.6464 8.64694L10.5 9.79338L9.35355 8.64694C9.15829 8.45167 8.84171 8.45167 8.64645 8.64694C8.45118 8.8422 8.45118 9.15878 8.64645 9.35404L9.79289 10.5005L8.64645 11.6469C8.45118 11.8422 8.45118 12.1588 8.64645 12.3541C8.84171 12.5493 9.15829 12.5493 9.35355 12.3541L10.5 11.2076L11.6464 12.3541C11.8417 12.5493 12.1583 12.5493 12.3536 12.3541C12.5488 12.1588 12.5488 11.8422 12.3536 11.6469L11.2071 10.5005L12.3536 9.35404Z" fill="#212121"/>
</svg>

<svg xmlns="http://www.w3.org/2000/svg" width="16" height="16"><path d="M7.194 2.102a.9.9 0 0 1 1.614 0l1.433 2.904A5.5 5.5 0 0 0 5.87 13.47l-.911.479A.9.9 0 0 1 3.653 13l.58-3.387-2.46-2.4a.9.9 0 0 1 .499-1.534l3.4-.495 1.522-3.082ZM15 10.501a4.5 4.5 0 1 1-9 0 4.5 4.5 0 0 1 9 0Zm-2.646-1.147a.5.5 0 0 0-.708-.707L10.5 9.793 9.354 8.647a.5.5 0 1 0-.708.707l1.147 1.147-1.147 1.146a.5.5 0 0 0 .708.707l1.146-1.146 1.146 1.146a.5.5 0 0 0 .708-.707L11.207 10.5l1.147-1.147Z"/></svg>
